**kern	**kern	**dynam
*part1	*part1	*part1
*staff2	*staff1	*
*I"Piano	*	*
*clefF4	*clefG2	*
*k[f#c#g#d#]	*k[f#c#g#d#]	*
=1	=1	=1
(4E	(4B 4e 4g#	p
4BB#X	4A 4d# 4f#	.
=	=	=
4C#)	4G#) 4e	.
4r	4r	.
=	=	=
(4F# 4A	(4c# 4a	.
4E#X 4A#X	4c##X 4g#	.
=	=	=
2D#X) 2A#X	2d#) 2f##X	.
=	=	=
([2G# 2B	2d# 2b	.
=	=	=
.	16qqb/LL	<
.	16qqcc#/JJ	.
*	*^	*
2C# 2G#] 2c#	6b	2e#X	.
.	6a#X	.	.
.	6b	.	.
=	=	=	=
[2F# 2A#X	4dd#:	2en	[ >
.	4cc#	.	.
*	*v	*v	*
=	=	=
4BB) 4F#] 4B	4d# 4b	.
4r	4r	]
=	=	=
(4E	(4B 4e 4g#	.
4BB#X	4A 4d# 4f#	.
=	=	=
*-	*-	*-
!!!system-decoration: {(s1,s2)}
